!!!COM: Corelli, Arcangelo
!!!OTL: 
!!!ONM: Opus 6, No. 1
!!!OMV: 6
!!!CDT: 1653/2/17/-1713/1/8/
!!!OCY: Italia
**kern	**kern	**kern	**kern	**kern	**kern	**kern
*clefC	*clefG	*clefG	*clefG	*clefC	*clefG	*clefG
*k[f#c#]	*k[f#c#]	*k[f#c#]	*k[f#c#]	*k[f#c#]	*k[f#c#]	*k[f#c#]
*D:	*D:	*D:	*D:	*D:	*D:	*D:
*M2/2	*M2/2	*M2/2	*M2/2	*M2/2	*M2/2	*M2/2
=1	=1	=1	=1	=1	=1	=1
1r	1r	1r	1r	1r	4ff#	4aa
.	.	.	.	.	12r	12r
.	.	.	.	.	12dd	12ff#
.	.	.	.	.	12ee	12gg
.	.	.	.	.	12ff#	12aa
.	.	.	.	.	12gg	12bb
.	.	.	.	.	12ff#	12aa
.	.	.	.	.	12ff#	12aa
.	.	.	.	.	12gg	12bb
.	.	.	.	.	12ff#	12aa
=2	=2	=2	=2	=2	=2	=2
1r	1r	1r	1r	1r	12ff#	12aa
.	.	.	.	.	12dd	12ff#
.	.	.	.	.	12ee	12gg
.	.	.	.	.	12ff#	12aa
.	.	.	.	.	12dd	12ff#
.	.	.	.	.	12ff#	12aa
.	.	.	.	.	12gg	12bb
.	.	.	.	.	12ee	12gg
.	.	.	.	.	12ff#	12aa
.	.	.	.	.	12gg	12bb
.	.	.	.	.	12ee	12gg
.	.	.	.	.	12gg	12bb
=3	=3	=3	=3	=3	=3	=3
1r	1r	1r	1r	1r	12ff#	12aa
.	.	.	.	.	12dd	12ff#
.	.	.	.	.	12ee	12gg
.	.	.	.	.	12ff#	12aa
.	.	.	.	.	12dd	12ff#
.	.	.	.	.	12ff#	12aa
.	.	.	.	.	12ee	12gg
.	.	.	.	.	12cc#	12ee
.	.	.	.	.	12dd	12ff#
.	.	.	.	.	12ee	12gg
.	.	.	.	.	12cc#	12ee
.	.	.	.	.	12ee	12gg
=4	=4	=4	=4	=4	=4	=4
1r	1r	1r	1r	1r	12dd	12ff#
.	.	.	.	.	12a	12dd
.	.	.	.	.	12dd	12ff#
.	.	.	.	.	12cc#	12ee
.	.	.	.	.	12a	12cc#
.	.	.	.	.	12cc#	12ee
.	.	.	.	.	12dd	12ff#
.	.	.	.	.	12a	12dd
.	.	.	.	.	12dd	12ff#
.	.	.	.	.	12cc#	12ee
.	.	.	.	.	12a	12cc#
.	.	.	.	.	12cc#	12ee
=5	=5	=5	=5	=5	=5	=5
1r	1r	1r	1r	1r	12dd	12ff#
.	.	.	.	.	12a	12dd
.	.	.	.	.	12dd	12ff#
.	.	.	.	.	12cc#	12ee
.	.	.	.	.	12a	12cc#
.	.	.	.	.	12cc#	12ee
.	.	.	.	.	4dd	12ff#
.	.	.	.	.	.	12dd
.	.	.	.	.	.	12ff#
.	.	.	.	.	4b	12gg#
.	.	.	.	.	.	12b
.	.	.	.	.	.	12gg#
=6	=6	=6	=6	=6	=6	=6
4r	4r	2r	4r	4r	4a	4aa
4F#	2f#	.	2aa	4F#	4r	2aa
4B	.	2dd	.	4B	2dd	.
4E	[4e	.	[4gg	4E	.	[4gg
=7	=7	=7	=7	=7	=7	=7
4A	4e]	2cc#	4gg]	4A	2cc#	4gg]
4D	2d	.	2ff#	4D	.	2ff#
4GG	.	2b	.	4GG	2b	.
[4G	4g	.	4ee	[4G	.	4ee
=8	=8	=8	=8	=8	=8	=8
4G]	4e	4cc#	4a	4G]	4cc#	4a
8F#	4d	8a	2dd	8F#	8a	2dd
8G	.	8b	.	8G	8b	.
4A	4.a	4.e	.	4A	4.e	.
4AA	.	.	4cc#	4AA	.	4cc#
.	8a	8a	.	.	8a	.
=9	=9	=9	=9	=9	=9	=9
2D	2a	2f#	2dd	2D	2f#	2dd
2r	2r	2r	2r	2r	4dd	12gg
.	.	.	.	.	.	12gg
.	.	.	.	.	.	12aa
.	.	.	.	.	4r	12ff#
.	.	.	.	.	.	12gg
.	.	.	.	.	.	12aa
=10	=10	=10	=10	=10	=10	=10
1r	1r	1r	1r	1r	4cc#	12ee
.	.	.	.	.	.	12aa
.	.	.	.	.	.	12ee
.	.	.	.	.	4r	12cc#
.	.	.	.	.	.	12a
.	.	.	.	.	.	12cc#
.	.	.	.	.	4b	12dd
.	.	.	.	.	.	12ee
.	.	.	.	.	.	12ff#
.	.	.	.	.	4e	12ee
.	.	.	.	.	.	12ff#
.	.	.	.	.	.	12dd
=11	=11	=11	=11	=11	=11	=11
1r	1r	1r	1r	1r	4a	12cc#
.	.	.	.	.	.	12b
.	.	.	.	.	.	12a
.	.	.	.	.	4r	12ee
.	.	.	.	.	.	12cc#
.	.	.	.	.	.	12ee
.	.	.	.	.	4d	12ff#
.	.	.	.	.	.	12dd
.	.	.	.	.	.	12ff#
.	.	.	.	.	4r	12ff#
.	.	.	.	.	.	12dd
.	.	.	.	.	.	12ff#
=12	=12	=12	=12	=12	=12	=12
1r	1r	1r	1r	1r	4e	12gg#
.	.	.	.	.	.	12ee
.	.	.	.	.	.	12gg#
.	.	.	.	.	4A	12aa
.	.	.	.	.	.	12ee
.	.	.	.	.	.	12dd
.	.	.	.	.	4.e	12cc#
.	.	.	.	.	.	12ee
.	.	.	.	.	.	12aa
.	.	.	.	.	.	12b
.	.	.	.	.	.	12aa
.	.	.	.	.	8e	.
.	.	.	.	.	.	12gg#
=13	=13	=13	=13	=13	=13	=13
2r	2r	2r	2r	2r	4A	4a
.	.	.	.	.	4c#	4A
4d	4f#	4a	4f#	4d	4r	4r
4r	4r	4dd	4ff#	4r	4dd	4ff#
=14	=14	=14	=14	=14	=14	=14
4A	4c#	4r	4r	4A	4r	4r
4r	4r	4cc#	4ee	4r	4cc#	4ee
4B	4d	4r	4r	4B	4r	4r
4r	4r	4b	4dd	4r	4b	4dd
=15	=15	=15	=15	=15	=15	=15
4F#	4A	4r	4r	4F#	4r	4r
4r	4r	4a	4cc#	4r	4a	4cc#
4G	4B	4r	4r	4G	4r	4r
4r	4r	[4g	4b	4r	[4g	4b
=16	=16	=16	=16	=16	=16	=16
4A	4e	4g]	4cc#	4A	4g]	4cc#
4D	8f#	4f#	2dd	4D	4f#	2dd
.	8g	.	.	.	.	.
2AA	4a	4.e	.	2AA	4.e	.
.	4A	.	4cc#	.	.	4cc#
.	.	8a	.	.	8a	.
=17	=17	=17	=17	=17	=17	=17
2D	2A	2f#	2dd	2D	2f#	2dd
2r	2r	2r	2r	2r	12dd	4b
.	.	.	.	.	12f#	.
.	.	.	.	.	12dd	.
.	.	.	.	.	12cc#	4a#
.	.	.	.	.	12f#	.
.	.	.	.	.	12cc#	.
=18	=18	=18	=18	=18	=18	=18
2r	2r	2r	2r	2r	12dd	4b
.	.	.	.	.	12f#	.
.	.	.	.	.	12dd	.
.	.	.	.	.	12cc#	4f#
.	.	.	.	.	12f#	.
.	.	.	.	.	12cc#	.
4B	4f#	4dd	4b	4B	12dd	4b
.	.	.	.	.	12f#	.
.	.	.	.	.	12dd	.
4F#	4f#	4cc#	4a#	4F#	12cc#	4a#
.	.	.	.	.	12f#	.
.	.	.	.	.	12cc#	.
=19	=19	=19	=19	=19	=19	=19
4B	4f#	4dd	4b	4B	4dd	4b
4BB	4f#	4B	4d	4BB	4B	4r
2r	2r	2r	2r	2r	4ee	12gg
.	.	.	.	.	.	12b
.	.	.	.	.	.	12gg
.	.	.	.	.	4dd#	12ff#
.	.	.	.	.	.	12b
.	.	.	.	.	.	12ff#
=20	=20	=20	=20	=20	=20	=20
2r	2r	2r	2r	2r	4ee	12gg
.	.	.	.	.	.	12b
.	.	.	.	.	.	12gg
.	.	.	.	.	4b	12ff#
.	.	.	.	.	.	12b
.	.	.	.	.	.	12ff#
4e	4b	4ee	4gg	4e	4ee	12gg
.	.	.	.	.	.	12b
.	.	.	.	.	.	12gg
4B	4b	4dd#	4ff#	4B	4dd#	12ff#
.	.	.	.	.	.	12b
.	.	.	.	.	.	12ff#
=21	=21	=21	=21	=21	=21	=21
4e	4b	4ee	4gg	4e	4ee	4gg
4E	4b	4g	4e	4E	4r	4e
2r	2r	2r	2r	2r	12cc#	4a
.	.	.	.	.	12e	.
.	.	.	.	.	12cc#	.
.	.	.	.	.	12b	4g#
.	.	.	.	.	12e	.
.	.	.	.	.	12b	.
=22	=22	=22	=22	=22	=22	=22
2r	2r	2r	2r	2r	12cc#	4a
.	.	.	.	.	12e	.
.	.	.	.	.	12cc#	.
.	.	.	.	.	12b	4e
.	.	.	.	.	12e	.
.	.	.	.	.	12b	.
4A	4e	4cc#	4a	4A	12cc#	4a
.	.	.	.	.	12e	.
.	.	.	.	.	12cc#	.
4E	4e	4b	4g#	4E	12b	4g#
.	.	.	.	.	12e	.
.	.	.	.	.	12b	.
=23	=23	=23	=23	=23	=23	=23
4A	4e	4cc#	4a	4A	4cc#	4a
4AA	4e	4A	4c#	4AA	4A	4r
2r	2r	2r	2r	2r	4ff#	12aa
.	.	.	.	.	.	12cc#
.	.	.	.	.	.	12aa
.	.	.	.	.	4ee#	12gg#
.	.	.	.	.	.	12cc#
.	.	.	.	.	.	12gg#
=24	=24	=24	=24	=24	=24	=24
2r	2r	2r	2r	2r	4ff#	12aa
.	.	.	.	.	.	12cc#
.	.	.	.	.	.	12aa
.	.	.	.	.	4cc#	12gg#
.	.	.	.	.	.	12cc#
.	.	.	.	.	.	12gg#
4f#	4cc#	4ff#	4aa	4f#	4ff#	12aa
.	.	.	.	.	.	12cc#
.	.	.	.	.	.	12aa
4c#	4cc#	4ee#	4gg#	4c#	4ee#	12gg#
.	.	.	.	.	.	12cc#
.	.	.	.	.	.	12gg#
=25	=25	=25	=25	=25	=25	=25
4F#	4cc#	4ff#	4aa	4F#	4ff#	4aa
4E	4c#	2cc#	4gg#	4E	2cc#	4gg#
4D	4f#	.	2ff#	4D	.	12ff#
.	.	.	.	.	.	12gg#
.	.	.	.	.	.	12aa
4GG#	4b	[4b	.	4GG#	[4b	12gg#
.	.	.	.	.	.	12aa
.	.	.	.	.	.	12ff#
=26	=26	=26	=26	=26	=26	=26
4C#	4g#	4b]	4ee#	4C#	4b]	4ee#
4F#	8a	4a	2ff#	4F#	4a	2ff#
.	8b	.	.	.	.	.
4c#	2cc#	4g#	.	4c#	4g#	.
4C#	.	4cc#	4ee#	4C#	4cc#	4ee#
=27	=27	=27	=27	=27	=27	=27
4r	4r	4r	4r	4r	4r	4r
4F#	4f#	4a	4dd	4F#	4a	4dd
4E	4cc#	4g#	4cc#	4E	4g#	4cc#
4D	4f#	4f#	[4b	4D	4f#	[4b
=28	=28	=28	=28	=28	=28	=28
4C#	4g#	4e#	4b]	4C#	4e#	4b]
4FF#	8a	2f#	4a	4FF#	2f#	4a
.	8b	.	.	.	.	.
2C#	4cc#	.	2g#	2C#	.	2g#
.	4c#	4e#	.	.	4e#	.
=29	=29	=29	=29	=29	=29	=29
2FF#	2c#	2f#	2f#	2FF#	2f#	2f#
2r	2r	2r	2r	2r	4ff#	4aa
.	.	.	.	.	12r	12r
.	.	.	.	.	12dd	12ff#
.	.	.	.	.	12ee	12gg
=30	=30	=30	=30	=30	=30	=30
1r	1r	1r	1r	1r	12ff#	12aa
.	.	.	.	.	12gg	12bb
.	.	.	.	.	12ff#	12aa
.	.	.	.	.	12ff#	12aa
.	.	.	.	.	12gg	12bb
.	.	.	.	.	12ff#	12aa
.	.	.	.	.	12ff#	12aa
.	.	.	.	.	12dd	12ff#
.	.	.	.	.	12ee	12gg
.	.	.	.	.	12ff#	12aa
.	.	.	.	.	12dd	12ff#
.	.	.	.	.	12ff#	12aa
=31	=31	=31	=31	=31	=31	=31
1r	1r	1r	1r	1r	12gg	12bb
.	.	.	.	.	12ee	12gg
.	.	.	.	.	12ff#	12aa
.	.	.	.	.	12gg	12bb
.	.	.	.	.	12ee	12gg
.	.	.	.	.	12gg	12bb
.	.	.	.	.	12ff#	12aa
.	.	.	.	.	12dd	12ff#
.	.	.	.	.	12ee	12gg
.	.	.	.	.	12ff#	12aa
.	.	.	.	.	12dd	12ff#
.	.	.	.	.	12ff#	12aa
=32	=32	=32	=32	=32	=32	=32
1r	1r	1r	1r	1r	12ee	12gg
.	.	.	.	.	12cc#	12ee
.	.	.	.	.	12dd	12ff#
.	.	.	.	.	12ee	12gg
.	.	.	.	.	12cc#	12ee
.	.	.	.	.	12ee	12gg
.	.	.	.	.	12dd	12ff#
.	.	.	.	.	12a	12dd
.	.	.	.	.	12dd	12ff#
.	.	.	.	.	12cc#	12ee
.	.	.	.	.	12a	12cc#
.	.	.	.	.	12cc#	12ee
=33	=33	=33	=33	=33	=33	=33
1r	1r	1r	1r	1r	12dd	12ff#
.	.	.	.	.	12a	12dd
.	.	.	.	.	12dd	12ff#
.	.	.	.	.	12cc#	12ee
.	.	.	.	.	12a	12cc#
.	.	.	.	.	12cc#	12ee
.	.	.	.	.	12dd	12ff#
.	.	.	.	.	12a	12dd
.	.	.	.	.	12dd	12ff#
.	.	.	.	.	12cc#	12ee
.	.	.	.	.	12a	12cc#
.	.	.	.	.	12cc#	12ee
=34	=34	=34	=34	=34	=34	=34
2.r	2.r	1r	2.r	2.r	4dd	12ff#
.	.	.	.	.	.	12dd
.	.	.	.	.	.	12ff#
.	.	.	.	.	4b	12gg#
.	.	.	.	.	.	12b
.	.	.	.	.	.	12gg#
.	.	.	.	.	4a	4aa
4F#	[4f#	.	[4aa	4F#	4r	[4aa
=35	=35	=35	=35	=35	=35	=35
4B	4f#]	2dd	4aa]	4B	2dd	4aa]
4E	2e	.	2gg	4E	.	2gg
4A	.	2cc#	.	4A	2cc#	.
4D	[4d	.	[4ff#	4D	.	[4ff#
=36	=36	=36	=36	=36	=36	=36
4GG	4d]	2b	4ff#]	4GG	2b	4ff#]
2G	4g	.	4ee	2G	.	4ee
.	4e	4cc#	4a	.	4cc#	4a
8F#	4d	8a	[4dd	8F#	8a	[4dd
8G	.	8b	.	8G	8b	.
=37	=37	=37	=37	=37	=37	=37
4A	4.a	4.e	4dd]	4A	4.e	4dd]
4AA	.	.	4cc#	4AA	.	4cc#
.	8a	8a	.	.	8a	.
4D	4a	4f#	4dd	4r	4f#	4dd
4r	4r	4r	4r	4D	4dd	4ff#
=38	=38	=38	=38	=38	=38	=38
4r	4r	4r	4r	4A	4dd	4ee
4AA	4e	4cc#	4aa	4AA	4cc#	4aa
4E	4e	4b	4aa	4EE	4r	4r
4EE	4B	4ee	4gg	4E	4ee	4gg
=39	=39	=39	=39	=39	=39	=39
4r	4r	4r	4r	4B	4ee	4ff#
4BB	4f#	4dd	4bb	4BB	4dd	4bb
4F#	4f#	4cc#	4bb	4FF#	4r	4r
4FF#	4c#	4ff#	4aa	4F#	[4ff#	4aa
=40	=40	=40	=40	=40	=40	=40
4r	4r	4r	4r	4B	4ff#]	2gg
4c#	4a	2ee	4gg	4c#	2ee	.
4d	4a	.	2ff#	4d	.	2ff#
4D	4f#	[4dd	.	4D	[4dd	.
=41	=41	=41	=41	=41	=41	=41
4E	4B	4dd]	4gg#	4E	4dd]	4gg#
4AA	8c#	4cc#	2aa	4AA	4cc#	2aa
.	8d	.	.	.	.	.
4E	2e	4b	.	4E	4b	.
4EE	.	4ee	4gg#	4EE	4ee	4gg#
=42	=42	=42	=42	=42	=42	=42
4A	4cc#	4r	4r	4A	4r	4r
4r	4r	4a	4cc#	4r	4a	4cc#
4E	4g#	4r	4r	4E	4r	4r
4r	4r	4g#	4b	4r	4g#	4b
=43	=43	=43	=43	=43	=43	=43
4F#	4a	4r	4r	4F#	4r	4r
4r	4r	4f#	4a	4r	4f#	4a
4C#	4f#	4r	4r	4C#	4r	4r
4r	4r	4e	4g#	4r	4e	4g#
=44	=44	=44	=44	=44	=44	=44
4D	4f#	4r	4r	4D	4r	4r
4r	4r	2d	4f#	4r	2d	4f#
4E	4B	.	4g#	4E	.	4g#
4AA	8c#	4c#	[4a	4AA	4c#	[4a
.	8d	.	.	.	.	.
=45	=45	=45	=45	=45	=45	=45
4E	4.e	4.B	4a]	4E	4B	4a]
4EE	.	.	4g#	4EE	4e	4g#
.	8e	8e	.	.	.	.
2AA	2e	2c#	2a	2AA	4a	12cc#
.	.	.	.	.	.	12ee
.	.	.	.	.	.	12ee
.	.	.	.	.	4r	12cc#
.	.	.	.	.	.	12ee
.	.	.	.	.	.	12ee
=46	=46	=46	=46	=46	=46	=46
1r	1r	1r	1r	1r	4g#	12b
.	.	.	.	.	.	12ee
.	.	.	.	.	.	12ee
.	.	.	.	.	4e	12b
.	.	.	.	.	.	12ee
.	.	.	.	.	.	12ee
.	.	.	.	.	4a	12cc#
.	.	.	.	.	.	12ee
.	.	.	.	.	.	12ee
.	.	.	.	.	4c#	12cc#
.	.	.	.	.	.	12ee
.	.	.	.	.	.	12ee
=47	=47	=47	=47	=47	=47	=47
4d	4dd	4aa	4ff#	4d	4dd	12ff#
.	.	.	.	.	.	12aa
.	.	.	.	.	.	12aa
4r	4r	4r	4r	4r	4r	12ff#
.	.	.	.	.	.	12aa
.	.	.	.	.	.	12aa
4c#	4a	4aa	4ee	4c#	4cc#	12ee
.	.	.	.	.	.	12aa
.	.	.	.	.	.	12aa
4A	4a	4aa	4aa	4A	4a	12ee
.	.	.	.	.	.	12aa
.	.	.	.	.	.	12aa
=48	=48	=48	=48	=48	=48	=48
4d	4a	4aa	4ff#	4d	4dd	12ff#
.	.	.	.	.	.	12aa
.	.	.	.	.	.	12aa
4D	4a	4dd	4f#	4D	4d	12ff#
.	.	.	.	.	.	12aa
.	.	.	.	.	.	12aa
2r	2r	2r	2r	2r	4f#	12ff#
.	.	.	.	.	.	12ddd
.	.	.	.	.	.	12ddd
.	.	.	.	.	4r	12ff#
.	.	.	.	.	.	12ddd
.	.	.	.	.	.	12ddd
=49	=49	=49	=49	=49	=49	=49
1r	1r	1r	1r	1r	4g#	12ee
.	.	.	.	.	.	12ddd
.	.	.	.	.	.	12ddd
.	.	.	.	.	4r	12ee
.	.	.	.	.	.	12ddd
.	.	.	.	.	.	12ddd
.	.	.	.	.	4a#	12ee
.	.	.	.	.	.	12ccc#
.	.	.	.	.	.	12ccc#
.	.	.	.	.	4r	12ee
.	.	.	.	.	.	12ccc#
.	.	.	.	.	.	12ccc#
=50	=50	=50	=50	=50	=50	=50
2r	2r	2r	2r	2r	4b	12dd
.	.	.	.	.	.	12ccc#
.	.	.	.	.	.	12ccc#
.	.	.	.	.	4r	12dd
.	.	.	.	.	.	12ccc#
.	.	.	.	.	.	12ccc#
4D	4b	4ff#	4bb	4D	4ff#	12dd
.	.	.	.	.	.	12bb
.	.	.	.	.	.	12bb
4BB	4B	4dd	4r	4BB	4dd	12dd
.	.	.	.	.	.	12bb
.	.	.	.	.	.	12bb
=51	=51	=51	=51	=51	=51	=51
4E	4c#	4gg	4bb	4E	4gg	12cc#
.	.	.	.	.	.	12bb
.	.	.	.	.	.	12bb
4C#	4e	4ee	4r	4C#	4ee	12cc#
.	.	.	.	.	.	12bb
.	.	.	.	.	.	12bb
4F#	4.f#	4cc#	4ff#	4F#	4cc#	12ff#
.	.	.	.	.	.	12aa#
.	.	.	.	.	.	12aa#
4FF#	.	4ff#	4aa#	4FF#	4ff#	12ff#
.	.	.	.	.	.	12aa#
.	8f#	.	.	.	.	.
.	.	.	.	.	.	12aa#
=52	=52	=52	=52	=52	=52	=52
4BB	4f#	4dd	4bb	4BB	4dd	12dd
.	.	.	.	.	.	12bb
.	.	.	.	.	.	12bb
2.r	2.r	2.r	2.r	2.r	4r	12dd
.	.	.	.	.	.	12bb
.	.	.	.	.	.	12bb
.	.	.	.	.	4f#	12ff#
.	.	.	.	.	.	12ddd
.	.	.	.	.	.	12ddd
.	.	.	.	.	4r	12ff#
.	.	.	.	.	.	12ddd
.	.	.	.	.	.	12ddd
=53	=53	=53	=53	=53	=53	=53
1r	1r	1r	1r	1r	4g#	12ee
.	.	.	.	.	.	12ddd
.	.	.	.	.	.	12ddd
.	.	.	.	.	4r	12ee
.	.	.	.	.	.	12ddd
.	.	.	.	.	.	12ddd
.	.	.	.	.	4a#	12ee
.	.	.	.	.	.	12ccc#
.	.	.	.	.	.	12ccc#
.	.	.	.	.	4r	12ee
.	.	.	.	.	.	12ccc#
.	.	.	.	.	.	12ccc#
=54	=54	=54	=54	=54	=54	=54
2r	2r	2r	2r	2r	4b	12dd
.	.	.	.	.	.	12ccc#
.	.	.	.	.	.	12ccc#
.	.	.	.	.	4r	12dd
.	.	.	.	.	.	12ccc#
.	.	.	.	.	.	12ccc#
4D	4b	4ff#	4bb	4D	4ff#	12dd
.	.	.	.	.	.	12bb
.	.	.	.	.	.	12bb
4BB	4B	4dd	4r	4BB	4dd	12dd
.	.	.	.	.	.	12bb
.	.	.	.	.	.	12bb
=55	=55	=55	=55	=55	=55	=55
4E	4c#	4gg	4bb	4E	4gg	12cc#
.	.	.	.	.	.	12bb
.	.	.	.	.	.	12bb
4C#	4e	4ee	4r	4C#	4ee	12cc#
.	.	.	.	.	.	12bb
.	.	.	.	.	.	12bb
4F#	4.f#	4cc#	4ff#	4F#	4cc#	12ff#
.	.	.	.	.	.	12aa#
.	.	.	.	.	.	12aa#
4FF#	.	4ff#	4aa#	4FF#	4ff#	12ff#
.	.	.	.	.	.	12aa#
.	8f#	.	.	.	.	.
.	.	.	.	.	.	12aa#
=56	=56	=56	=56	=56	=56	=56
4BB	4f#	4dd	4bb	4BB	4r	12ff#
.	.	.	.	.	.	12bb
.	.	.	.	.	.	12bb
2.r	2.r	2.r	2.r	2.r	4b	12ff#
.	.	.	.	.	.	12bb
.	.	.	.	.	.	12bb
.	.	.	.	.	4dd	12ff#
.	.	.	.	.	.	12bb
.	.	.	.	.	.	12bb
.	.	.	.	.	4b	12ff#
.	.	.	.	.	.	12bb
.	.	.	.	.	.	12bb
=57	=57	=57	=57	=57	=57	=57
4C#	4g#	4ee#	4bb	4C#	4r	12ee#
.	.	.	.	.	.	12bb
.	.	.	.	.	.	12bb
2.r	2.r	2.r	2.r	2.r	4c#	12ee#
.	.	.	.	.	.	12bb
.	.	.	.	.	.	12bb
.	.	.	.	.	4e#	12ee#
.	.	.	.	.	.	12bb
.	.	.	.	.	.	12bb
.	.	.	.	.	4c#	12ee#
.	.	.	.	.	.	12bb
.	.	.	.	.	.	12bb
=58	=58	=58	=58	=58	=58	=58
4F#	4c#	4ff#	4aa	4F#	4r	12ff#
.	.	.	.	.	.	12aa
.	.	.	.	.	.	12aa
2.r	2.r	2.r	2.r	2.r	4f#	12ff#
.	.	.	.	.	.	12aa
.	.	.	.	.	.	12aa
.	.	.	.	.	4a	12ff#
.	.	.	.	.	.	12aa
.	.	.	.	.	.	12aa
.	.	.	.	.	4f#	12ff#
.	.	.	.	.	.	12aa
.	.	.	.	.	.	12aa
=59	=59	=59	=59	=59	=59	=59
4BB	4f#	4dd#	4aa	4BB	4r	12dd#
.	.	.	.	.	.	12aa
.	.	.	.	.	.	12aa
2.r	2.r	2.r	2.r	2.r	4B	12dd#
.	.	.	.	.	.	12aa
.	.	.	.	.	.	12aa
.	.	.	.	.	4d#	12dd#
.	.	.	.	.	.	12aa
.	.	.	.	.	.	12aa
.	.	.	.	.	4B	12dd#
.	.	.	.	.	.	12aa
.	.	.	.	.	.	12aa
=60	=60	=60	=60	=60	=60	=60
4E	4B	4ee	4gg	4E	4r	12ee
.	.	.	.	.	.	12gg
.	.	.	.	.	.	12gg
2.r	2.r	2.r	2.r	2.r	4e	12ee
.	.	.	.	.	.	12gg
.	.	.	.	.	.	12gg
.	.	.	.	.	4g	12ee
.	.	.	.	.	.	12gg
.	.	.	.	.	.	12gg
.	.	.	.	.	4e	12ee
.	.	.	.	.	.	12gg
.	.	.	.	.	.	12gg
=61	=61	=61	=61	=61	=61	=61
4AA	4e	4cc#	4gg	4AA	4r	12cc#
.	.	.	.	.	.	12gg
.	.	.	.	.	.	12gg
2.r	2.r	2.r	2.r	2.r	4A	12cc#
.	.	.	.	.	.	12gg
.	.	.	.	.	.	12gg
.	.	.	.	.	4c#	12cc#
.	.	.	.	.	.	12gg
.	.	.	.	.	.	12gg
.	.	.	.	.	4A	12cc#
.	.	.	.	.	.	12gg
.	.	.	.	.	.	12gg
=62	=62	=62	=62	=62	=62	=62
4D	4A	4dd	4ff#	4D	4r	12dd
.	.	.	.	.	.	12ff#
.	.	.	.	.	.	12ff#
2.r	2.r	2.r	2.r	2.r	4d	12dd
.	.	.	.	.	.	12ff#
.	.	.	.	.	.	12ff#
.	.	.	.	.	4f#	12dd
.	.	.	.	.	.	12ff#
.	.	.	.	.	.	12ff#
.	.	.	.	.	4d	12dd
.	.	.	.	.	.	12ff#
.	.	.	.	.	.	12ff#
=63	=63	=63	=63	=63	=63	=63
4GG	4B	4b	4ff#	4GG	4g	12b
.	.	.	.	.	.	12ff#
.	.	.	.	.	.	12ff#
4r	4r	4r	4b	4r	4r	12b
.	.	.	.	.	.	12ff#
.	.	.	.	.	.	12ff#
4GG#	4b	4b	4.ee	4GG#	4g#	12b
.	.	.	.	.	.	12ee
.	.	.	.	.	.	12ee
4r	4r	4r	.	4r	4r	12b
.	.	.	.	.	.	12ee
.	.	.	8dd	.	.	.
.	.	.	.	.	.	12ee
=64	=64	=64	=64	=64	=64	=64
4AA	4a	4e	4cc#	4AA	4a	12cc#
.	.	.	.	.	.	12ee
.	.	.	.	.	.	12ee
2.r	2.r	2.r	2.r	2.r	4r	12a
.	.	.	.	.	.	12ee
.	.	.	.	.	.	12ee
.	.	.	.	.	4f#	12dd
.	.	.	.	.	.	12aa
.	.	.	.	.	.	12aa
.	.	.	.	.	4r	12dd
.	.	.	.	.	.	12aa
.	.	.	.	.	.	12aa
=65	=65	=65	=65	=65	=65	=65
1r	1r	1r	1r	1r	4g	12dd
.	.	.	.	.	.	12bb
.	.	.	.	.	.	12bb
.	.	.	.	.	4r	12dd
.	.	.	.	.	.	12bb
.	.	.	.	.	.	12bb
.	.	.	.	.	4g#	12ee
.	.	.	.	.	.	12bb
.	.	.	.	.	.	12bb
.	.	.	.	.	4r	12ee
.	.	.	.	.	.	12bb
.	.	.	.	.	.	12bb
=66	=66	=66	=66	=66	=66	=66
2r	2r	2r	2r	2r	4a	12ee
.	.	.	.	.	.	12ccc#
.	.	.	.	.	.	12ccc#
.	.	.	.	.	4r	12ee
.	.	.	.	.	.	12ccc#
.	.	.	.	.	.	12ccc#
4F#	4d	4ff#	4aa	4F#	4ff#	12ff#
.	.	.	.	.	.	12aa
.	.	.	.	.	.	12aa
4D	4f#	4aa	4ddd	4D	4aa	12ff#
.	.	.	.	.	.	12ddd
.	.	.	.	.	.	12ddd
=67	=67	=67	=67	=67	=67	=67
4G	4d	4gg	4bb	4G	4gg	12gg
.	.	.	.	.	.	12bb
.	.	.	.	.	.	12bb
4D	8f#	4ff#	2ddd	4D	4ff#	12ff#
.	.	.	.	.	.	12ddd
.	8g	.	.	.	.	.
.	.	.	.	.	.	12ddd
4A	4.a	4.ee	.	4A	4.ee	12ee
.	.	.	.	.	.	12ddd
.	.	.	.	.	.	12ddd
4AA	.	.	4ccc#	4AA	.	12ee
.	.	.	.	.	.	12ddd
.	8a	8aa	.	.	8aa	.
.	.	.	.	.	.	12ccc#
=68	=68	=68	=68	=68	=68	=68
4D	4a	4ff#	4ddd	4D	2ff#	4dd
2.r	2.r	2.r	2.r	4d	.	4b
.	.	.	.	4c#	4r	2a
.	.	.	.	4C#	4e	.
=69	=69	=69	=69	=69	=69	=69
1r	1r	1r	1r	4BB	2d	4r
.	.	.	.	4B	.	4g
.	.	.	.	4A	4r	2f#
.	.	.	.	4AA	4c#	.
=70	=70	=70	=70	=70	=70	=70
2.r	2.r	2.r	2.r	4GG	2B	4r
.	.	.	.	4G	.	4e
.	.	.	.	4F#	4r	4d
4G	4g	4b	[4g	4G	4b	[4g
=71	=71	=71	=71	=71	=71	=71
4A	4e	4cc#	4g]	4A	4cc#	4g]
4D	8f#	2dd	4f#	4D	2dd	4f#
.	8g	.	.	.	.	.
4A	4.a	.	4.e	4A	.	4.e
4AA	.	4cc#	.	4AA	4cc#	.
.	8a	.	8a	.	.	8a
=72	=72	=72	=72	=72	=72	=72
4D	4a	4dd	4f#	4D	2dd	4f#
2.r	2.r	2.r	2.r	4d	.	4b
.	.	.	.	4c#	4r	2a
.	.	.	.	4C#	4e	.
=73	=73	=73	=73	=73	=73	=73
1r	1r	1r	1r	4BB	2d	4r
.	.	.	.	4B	.	4g
.	.	.	.	4A	4r	2f#
.	.	.	.	4AA	4c#	.
=74	=74	=74	=74	=74	=74	=74
2.r	2.r	2.r	2.r	4GG	2B	4r
.	.	.	.	4G	.	4e
.	.	.	.	4F#	4r	4d
4G	4g	4b	[4g	4G	4b	[4g
=75	=75	=75	=75	=75	=75	=75
4A	4e	4c#	4g]	4A	4c#	4g]
4D	8f#	2d	4f#	4D	2d	4f#
.	8g	.	.	.	.	.
4A	4.a	.	4.e	4A	.	4.e
4AA	.	4c#	.	4AA	4c#	.
.	8a	.	8a	.	.	8a
=76	=76	=76	=76	=76	=76	=76
4D	4a	4d	4f#	4D	4d	4f#
4r	4r	4r	4r	4r	4r	4r
4AA	4A	4c#	4e	4AA	4c#	4e
4r	4r	4r	4r	4r	4r	4r
=77	=77	=77	=77	=77	=77	=77
1DD	1A	1d	1f#	1DD	1d	1f#
==	==	==	==	==	==	==
*-	*-	*-	*-	*-	*-	*-
!!!RWG: This file only contains pitch and duration data.
!!!RWG: Transposing instruments are not transposed.
!!!RWG: Durations of rests and tied notes may be interpreted.
!!!RWG: Key is interpreted using the Humdrum key tool.
!!!SCA: 
!!!YOR: Chrysander Edition
!!!AGN: concerto grosso
!!!AFT: stage1
!!!ENC: F. Bennion
!!!END: 1997/04/15
!!!AST: baroque
!!!YEC: Copyright 1994, Center for Computer Assisted Research in the Humanities
!!!YEM: Rights to all derivative electronic formats reserved.
!!!YEM: Refer to licensing agreement for further details.
!!!YEN: United States of America
!!!EED: W.B. Hewlett
!!!KEY: 568326754
!!!EMD: Converted from MuseData to Humdrum Aug 2, 1999, by Bret Aarden using muse2kern.
!!!VTS: 2015235880
